X: 31
M:6/8
L:1/8
Q:120
K:CMix
c|c>dc G2g|e3-e2 c|cdc G2B|A3-A2 F|F3/2 G/2A/2B/2 c2d|d3/2 c/2B/2G/2 G2g
|
e>fg d2c|c3-c2 ||
c|e>fg g>fg|e>fg g>fe|f2g a2b|c'6|c'2a e>fg|a2f d>ef|g2e c>de|d2B G>

